X:442
T:Maggie's Waltz Square
%%MIDI program 72
%%MIDI chordprog 46
%%MIDI chordvol 50
%%MIDI gchord GHc2G2
C:Colin Hume, 2002
L:1/8
M:3/4
S:Colin Hume's website,  colinhume.com  - chords can also be printed below the stave.
%%MIDI beat 100 95 80
Q:1/4=114
%%MIDI chordname dim 0 3 6 9
H:For Maggie Hosking
K:Am
P:A
[| "Am"Ec cB BA | "Dm"AG GF FE | "E7"E2^F2^G2 | "Am"A2E4 |\
"Dm"Fd dc cB | "E7"BA A^G GB | "Am"A2E2CD | "E7"E6 |
P:B
"Am"Ec cB BA | "B7"A2G2^F2 | "Em"GB BA AG | "Gdim"G2^F2E2 |\
"B7"^DE ^F4 | "Em"E^FG4 | "Am"ABc2A2 | "B7"B6 |
P:C
"G"Bd dc cB | "Am"B2A4 | "B7"Ac cB BA | "Em"A2G4 |\
"F"Ac cB BA | "G7"Bd dc cB | "Am"c2AB cd | "E"e6 |
P:D
"Dm"fed2f2 | "Am"e2A4 | "E7"dcB2d2 | "Am"c2E4 |\
"Dm"FED2F2 | "Am"EDC2E2 | "E7"DC CB, B,C | "Am"A,6 |]
%%textfont Times-Roman-Bold 20
%%center Last time, replace last two bars by...
"E7;^rall. e dim."DE ^GB eb | "Am"a6 |]

